core/assets/icons/character.robot.outline.svg

<svg width="25" height="24" viewBox="0 0 25 24" xmlns="http://www.w3.org/2000/svg"><g id="character=robot, state=outline" clip-path="url(#clip0_4929_1534)"><g id="Vector"><path d="M9.10132 11.8999H6.90112V14.1001H9.10132V11.8999Z"/><path d="M17.1013 11.8999H14.9011V14.1001H17.1013V11.8999Z"/><path d="M14.0012 17H10.0012V19H14.0012V17Z"/><path d="M21.0012 11V10C21.0005 8.34277 19.6585 7.00067 18.0012 7H13.0012V5.8161C14.1637 5.40277 15.0007 4.30463 15.0012 3C15.0005 1.34277 13.6585 0.00067 12.0012 0C10.344 0.00067 9.00195 1.34277 9.00122 3C9.00177 4.30463 9.83874 5.40277 11.0012 5.8161V7H6.00122C4.34399 7.00067 3.00195 8.34277 3.00122 10V11C1.34399 11.0007 0.0019507 12.3428 0.0012207 14V16C0.0019507 17.6572 1.34399 18.9993 3.00122 18.9999V20C3.00195 21.6572 4.34399 22.9993 6.00122 22.9999H18.0012C19.6585 22.9993 21.0005 21.6572 21.0012 20V19C22.6585 18.9993 24.0005 17.6572 24.0012 16V14C24.0005 12.3428 22.6585 11.0007 21.0012 11ZM12.0012 2C12.553 2.00098 13.0002 2.44824 13.0012 3C13.0002 3.55176 12.553 3.99896 12.0012 4C11.4495 3.99896 11.0022 3.55176 11.0012 3C11.0022 2.44824 11.4495 2.00098 12.0012 2ZM2.00122 16V14C2.0022 13.4482 2.44946 13.001 3.00122 13V17C2.44946 16.999 2.0022 16.5517 2.00122 16ZM19.0012 20C19.0002 20.5517 18.553 20.999 18.0012 21H6.00122C5.44946 20.999 5.0022 20.5517 5.00122 20V10C5.0022 9.44824 5.44946 9.00098 6.00122 9H18.0012C18.553 9.00098 19.0002 9.44824 19.0012 10V20ZM22.0012 16C22.0002 16.5517 21.553 16.999 21.0012 17V13C21.553 13.001 22.0002 13.4482 22.0012 14V16Z"/></g></g><defs><clipPath id="clip0_4929_1534"><rect width="24" height="24" transform="translate(0.0012207)"/></clipPath></defs></svg>

<svg xmlns="http://www.w3.org/2000/svg" width="25" height="24" fill="none"><g fill="#191C22" clip-path="url(#a)"><path d="M9.101 11.9h-2.2v2.2h2.2v-2.2ZM17.101 11.9h-2.2v2.2h2.2v-2.2ZM14.001 17h-4v2h4v-2Z"/><path d="M21.001 11v-1a3 3 0 0 0-3-3h-5V5.816a2.991 2.991 0 0 0-1-5.816 2.992 2.992 0 0 0-1 5.816V7h-5a3 3 0 0 0-3 3v1a3 3 0 0 0-3 3v2a3 3 0 0 0 3 3v1a3 3 0 0 0 3 3h12a3 3 0 0 0 3-3v-1a3 3 0 0 0 3-3v-2a3 3 0 0 0-3-3Zm-9-9c.552.001 1 .448 1 1a1.002 1.002 0 0 1-1 1 1.002 1.002 0 0 1-1-1 1.002 1.002 0 0 1 1-1Zm-10 14v-2a1.002 1.002 0 0 1 1-1v4a1.002 1.002 0 0 1-1-1Zm17 4a1.002 1.002 0 0 1-1 1h-12a1.002 1.002 0 0 1-1-1V10a1.002 1.002 0 0 1 1-1h12c.552.001 1 .448 1 1v10Zm3-4a1.002 1.002 0 0 1-1 1v-4c.552.001 1 .448 1 1v2Z"/></g><defs><clipPath id="a"><path fill="#fff" d="M.001 0h24v24h-24z"/></clipPath></defs></svg>
